X: 33
T: REELS: Trip to Birmingham Set
T: Trip to Birmingham
C: C: Josie McDermott / Dan Cleary / Phil Murphy; S: Various
C: Set Leaders: Mars, Tania, Anton
Z: [Unedited]; slainte / SPeak / Kenny at The Session
N: https://thesession.org/members/26966/sets/94276
R: Reel
M: 4/4
L: 1/8
Q: 1/2=100
K: Gmaj
|:DGGF G2Bd|~e3d edBA|~G3B dGBG|ABAG EFGE|
DGGF G2Bd|~e3d efga|bg~g2 ageg|dBAB G3:||
e|dggf g2 ga|bg~g2 edBA|~G3B dGBG|ABAG EFG2|
dggf g2 ga|bg~g2 edBA|~G3B dGBG|AGFA G3e|
dggf g2 ga|bg~g2 edBA|~G3B dGBG|ABAG EFG2|
dg~g2 ag~g2|bg~g2 edBA|~G3B dGBG|AGFA G3||
T: Trip to Durrow
K: Dmaj
|:D2DF ADFA|dfed B3c|dBBA dBBA|FADE FE E2|
D2DF ADFA|dfed B3c|dBBA FAdB|AFEG FD D2:||
|:dcde fefg|afdf gfed|B/c/d ef gebe|gebe gfef|
d2de fefg|afdf gfed|B/c/d ef gbag|fdec d2de|
fdec d2de|fded B3c|dBBA dBBA|FADE FE E2|
D2DF ADFA|dfed B3c|dBBA FAdB|AFEG FD D2:||
T: Trip to Cullenstown (Gmaj)
K: Gmaj
|:d2 de dBGA|B2 BG AGEG|d2 de dBGA|BAAG A4|
BABd e2 dB|dedB AGEG|B2 BG AGEG|1 DGGF GABc:|2 DGGF G3 A||
|:Bd d2 ce e2|d2 de dBGA|Bd d2 ed d2|gedB A4|
BABd e2 dB|dedB AGEG|B2 BG AGEG|DGGF G4:||

